X: 1757
T: Applesauce Quickstep, The
R: slide
M: 12/8
K: Gmajor
|:Bc^c|d^cd edc dBG D_E=E|E^DE A2 =c E3 A2 G|
F2 d d^cd F2 d d2 d|1 d^cd ed=c B3-:|2 cAF DEF G3||
B/c/|d2 g gfg d2 g g2 B|cBc e^de A3- A2 G/E/|
F2 d d^cd F2 d d2 B|cAF DEF GFE D2 c|
B2 g gfg B2 g g2 B|cBc e^de A2 e a2 g|
f2 d d^cd f2 d d2 g|fed cBA G3||

